svgs/solid/alarm-exclamation.svg

<svg xmlns="http://www.w3.org/2000/svg" viewBox="0 0 512 512"><!--! Font Awesome Pro 6.1.1 by @fontawesome - https://fontawesome.com License - https://fontawesome.com/license (Commercial License) Copyright 2022 Fonticons, Inc. --><path d="M0 95.24C0 42.64 42.64 0 95.24 0C120.2 0 143 9.638 160 25.4L14.86 146.4C5.452 131.6 0 114.1 0 95.24zM390.2 467.4C352.8 495.4 306.3 512 256 512C205.7 512 159.2 495.4 121.9 467.4L86.63 502.6C74.13 515.1 53.87 515.1 41.37 502.6C28.88 490.1 28.88 469.9 41.37 457.4L76.6 422.2C48.59 384.8 32 338.3 32 288C32 164.3 132.3 64 256 64C379.7 64 480 164.3 480 288C480 338.3 463.4 384.8 435.4 422.2L470.6 457.4C483.1 469.9 483.1 490.1 470.6 502.6C458.1 515.1 437.9 515.1 425.4 502.6L390.2 467.4zM256 352C238.3 352 224 366.3 224 384C224 401.7 238.3 416 256 416C273.7 416 288 401.7 288 384C288 366.3 273.7 352 256 352zM280 184C280 170.7 269.3 160 256 160C242.7 160 232 170.7 232 184V296C232 309.3 242.7 320 256 320C269.3 320 280 309.3 280 296V184zM416.8 0C469.4 0 512 42.64 512 95.24C512 114 506.5 131.6 497.1 146.4L352 25.4C368.1 9.638 391.8 0 416.8 0z"/></svg>

<svg xmlns="http://www.w3.org/2000/svg" viewBox="0 0 512 512"><!--! Font Awesome Pro 6.4.2 by @fontawesome - https://fontawesome.com License - https://fontawesome.com/license (Commercial License) Copyright 2023 Fonticons, Inc. --><path d="M14.9 146.4C5.5 131.6 0 114 0 95.2C0 42.6 42.6 0 95.2 0c25 0 47.8 9.6 64.8 25.4L14.9 146.4zM390.2 467.4C352.8 495.4 306.3 512 256 512s-96.8-16.6-134.1-44.6L86.6 502.6c-12.5 12.5-32.8 12.5-45.3 0s-12.5-32.8 0-45.3l35.2-35.2C48.6 384.8 32 338.3 32 288C32 164.3 132.3 64 256 64s224 100.3 224 224c0 50.3-16.6 96.8-44.6 134.2l35.2 35.2c12.5 12.5 12.5 32.8 0 45.3s-32.8 12.5-45.3 0l-35.2-35.2zM352 25.4C369 9.6 391.8 0 416.8 0C469.4 0 512 42.6 512 95.2c0 18.8-5.5 36.3-14.9 51.1L352 25.4zM288 384a32 32 0 1 0 -64 0 32 32 0 1 0 64 0zm-8-200c0-13.3-10.7-24-24-24s-24 10.7-24 24V296c0 13.3 10.7 24 24 24s24-10.7 24-24V184z"/></svg>
